!!!!SEGMENT: Lhe2004-Sancta_Maria_succurre_miseris.krn
!!!id: Lhe2004
!!!AGN: Motet
!!!SCT: Picker (1987)
!!!voices: 4
!!!COM: Jean Lhéritier
!!!OTL: Sancta Maria succurre miseris
**kern	**kern	**kern	**kern
*part4	*part3	*part2	*part1
*staff4	*staff3	*staff2	*staff1
*I"Bassus	*I"Tenor	*I"Altus	*I"Superius
*I'B	*I'T	*I'A	*I'S
*clefF4	*clefGv2	*clefGv2	*clefG2
*k[]	*k[]	*k[]	*k[]
*C:	*C:	*C:	*C:
*M2/1	*M2/1	*M2/1	*M2/1
*met(C|)	*met(C|)	*met(C|)	*met(C|)
!!Section: Prima pars: Sancta Maria succurre miseris
!!!OMD: Prima pars: Sancta Maria succurre miseris
=1	=1	=1	=1
0r	1.d	0r	1r
.	.	.	[1dd
.	2d	.	.
=2	=2	=2	=2
1.G	1d	1r	2dd]
.	.	.	2dd
.	1B	[1g	1dd
2G	.	.	.
=3	=3	=3	=3
1G	0G	2g]	1b
.	.	2g	.
1E	.	1g	[1g
=4	=4	=4	=4
1C	0c	1e	1g]
[1F	.	[1c	1r
=5	=5	=5	=5
1F]	1A	1c]	0r
1D	[1B	1r	.
=6	=6	=6	=6
1.E	2B]	0g	0r
.	2G	.	.
.	[1G	.	.
2C	.	.	.
=7	=7	=7	=7
1C	1G]	1e	0cc
1r	1r	[1f	.
=8	=8	=8	=8
1r	1.d	2f]	1a
.	.	2d	.
[1G	.	[1d	[1b
.	2B	.	.
=9	=9	=9	=9
1G]	1B	1d]	2b]
.	.	.	2g
1E	2.c	2.e	1g
.	4B	4d	.
=10	=10	=10	=10
1F	4A	4c	1a
.	4G	4B	.
.	2A	2c	.
[1G	2G	2B	2.b-i
.	[2B	[2d	.
.	.	.	4a
=11	=11	=11	=11
2G]	4B]	2d]	4g
.	4A	.	4f
2F	2.c	2A	2.a
1E	.	2B	.
.	4B	.	4g
.	4A	2c	[2g
.	4G	.	.
=12	=12	=12	=12
1D	1A	1.d	2g]
.	.	.	2f#i
2r	1G	.	[1g
[2G	.	2B	.
=13	=13	=13	=13
2G]	2r	1B	1g]
2G	1d	.	.
2F	.	1r	1r
2D	2d	.	.
=14	=14	=14	=14
2E	2c	1r	0r
2F	2A	.	.
[1G	2B	[1g	.
.	2c	.	.
=15	=15	=15	=15
2G]	1.d	2g]	1.dd
4F	.	2g	.
4E	.	.	.
1D	.	2f	.
.	4c	2d	2dd
.	4B	.	.
=16	=16	=16	=16
0r	1A	2e	2cc
.	.	2f	2a
.	2.G	[1g	2b
.	.	.	2cc
.	4A	.	.
=17	=17	=17	=17
1.G	0B	2g]	1.dd
.	.	4f	.
.	.	4e	.
.	.	1d	.
2G	.	.	4cc
.	.	.	4b
=18	=18	=18	=18
1F	2r	1.f	0a
.	1d	.	.
1D	.	.	.
.	2d	2f	.
=19	=19	=19	=19
2E	2c	2e	0r
2F	2.A	2c	.
2D	.	2.d	.
.	4F	.	.
[2G	[2B-i	.	.
.	.	8eL	.
.	.	8dJ	.
=20	=20	=20	=20
4G]	4B-]	2e	0g
4F	4A	.	.
4E	1A	1d	.
4D	.	.	.
1E	.	.	.
.	2G	2c#i	.
=21	=21	=21	=21
0D	[0A	2d	1.f
.	.	1d	.
.	.	2d	2d
=22	=22	=22	=22
0r	1A]	2c	2.e
.	.	2A	.
.	.	.	4f
.	1r	2B	2g
.	.	2c	[2a
=23	=23	=23	=23
1r	0r	2A	4a]
.	.	.	4f
.	.	2.d	2.b-i
[1G	.	.	.
.	.	4c	4a
.	.	4B	4g
.	.	4A	4f
=24	=24	=24	=24
1G]	0d	1B	1g
1D	.	2A	2f
.	.	[2d	[2a
=25	=25	=25	=25
0F	1A	2d]	4a]
.	.	.	4g
.	.	2c	4f
.	.	.	4e
.	[1c	4A	1f
.	.	4B	.
.	.	4c	.
.	.	4d	.
=26	=26	=26	=26
1C	1c]	4e	2e
.	.	4f	.
.	.	2.e	2.g
[1C	1G	.	.
.	.	4d	4f
.	.	4c	4e
.	.	4B	4d
=27	=27	=27	=27
1C]	1.G	1c	1e
1GG	.	2.B	2d
.	2A	.	[2dd
.	.	8AL	.
.	.	8GJ	.
=28	=28	=28	=28
0G	2B	2G	4dd]
.	.	.	4cc
.	2c	1.g	4b
.	.	.	4a
.	[1d	.	1b
=29	=29	=29	=29
1D	1d]	1f	1.a
[1A	1c	[1e	.
.	.	.	2b
=30	=30	=30	=30
1A]	0e	2e]	1cc
.	.	4d	.
.	.	4c	.
2.E	.	2.g	[1b
4F	.	8fL	.
.	.	8eJ	.
=31	=31	=31	=31
2G	2.B	2d	2b]
2E	.	2g	2g
.	4c	.	.
2F	2d	2f	2a
2G	2B	2d	[2b
=32	=32	=32	=32
2A	2c	1f	4b]
.	.	.	4a
2D	2d	.	1a
1E	1B	[1e	.
.	.	.	2g#i
=33	=33	=33	=33
2r	2A	1e]	1a
2A	1c	.	.
2A	.	2r	1r
2G	2B	2e	.
=34	=34	=34	=34
2A	2c	2e	2r
2F	2A	2d	2a
1E	1B	2.e	2a
.	.	.	2g
.	.	4d	.
=35	=35	=35	=35
2F	1A	2c	2a
2D	.	2d	2f
1A	1r	2d	1e
.	.	2c	.
=36	=36	=36	=36
1D	2r	2d	1d
.	2d	2B	.
1r	2d	1A	1e
.	2c	.	.
=37	=37	=37	=37
2r	2d	2B	0d
2G	2B	2G	.
2G	1A	2r	.
2F	.	2d	.
=38	=38	=38	=38
2G	2B	2d	2r
2E	2G	2c	2g
1D	1A	1d	2g
.	.	.	2f
=39	=39	=39	=39
2E	2G	2B	2g
2C	2c	2c	2e
1G	2c	1d	2d
.	2B	.	2g
=40	=40	=40	=40
0r	2c	2e	2g
.	2A	4c	2f
.	.	4d	.
.	1G	4e	2g
.	.	4f	.
.	.	2g	2e
=41	=41	=41	=41
0r	2d	2f	2d
.	2c	2.e	2.g
.	2d	.	.
.	.	4d	4f
.	2B	[2d	4e
.	.	.	4d
=42	=42	=42	=42
1r	1A	2d]	1e
.	.	2c#i	.
[1G	2r	1d	[1d
.	[2B	.	.
=43	=43	=43	=43
2G]	2B]	2r	1d]
2F	2A	1d	.
2G	2B	.	1r
2E	2G	2c	.
=44	=44	=44	=44
2D	2A	2.d	0r
2.G	1B	.	.
.	.	8cL	.
.	.	8dJ	.
.	.	2e	.
4F	.	.	.
4E	[2A	[2d	.
4D	.	.	.
=45	=45	=45	=45
1E	2A]	2d]	2r
.	2G	2c#i	2g
1D	1A	1d	2g
.	.	.	2f
=46	=46	=46	=46
1C	1c	2e	2g
.	.	1g	2e
1G	2.B	.	2d
.	.	2g	[2dd
.	4A	.	.
=47	=47	=47	=47
2r	2G	2.g	4dd]
.	.	.	4cc
2G	2d	.	4b
.	.	8fL	4a
.	.	8eJ	.
2G	2B	2d	2b
2F	[2c	2A	[2a
=48	=48	=48	=48
2G	4c]	2B	2a]
.	4B	.	.
2E	4A	2c	1g
.	4G	.	.
1D	1A	1d	.
.	.	.	2f#i
=49	=49	=49	=49
2GG	2G	2B	2g
1G	1B	1d	1g
2G	2B	2d	2g
=50	=50	=50	=50
2G	2B	2d	2g
2G	2B	2d	2g
2G	2B	2d	2g
2G	2B	2d	2g
=51	=51	=51	=51
1F	1c	1f	1a
[1G	[1B	[1d	1g
=52	=52	=52	=52
0G_	0B_	1d]	2r
.	.	.	2b
.	.	2r	[1dd
.	.	2d	.
=53	=53	=53	=53
1G]	1B]	1.g	2dd]
.	.	.	2b
1r	1r	.	1b
.	.	2e	.
=54	=54	=54	=54
1r	1A	1e	1cc
1D	[1d	1f	1a
=55	=55	=55	=55
1.G	2d]	1.d	1.b
.	2B	.	.
.	1B	.	.
2E	.	[2e	2g
=56	=56	=56	=56
1E	1c	2e]	1g
.	.	2c	.
1F	[1A	1c	[1a
=57	=57	=57	=57
2D	1A]	1d	0a_
1D	.	.	.
.	2r	1d	.
2D	[2A	.	.
=58	=58	=58	=58
1F	2A]	1c	1a]
.	2A	.	.
1F	1c	1f	1a
=59	=59	=59	=59
0C	1c	1.e	1g
.	[1G	.	1cc
.	.	[2g	.
=60	=60	=60	=60
1.E	1G]	4g]	[0b
.	.	4f	.
.	.	4e	.
.	.	4d	.
.	[1B	1e	.
2E	.	.	.
=61	=61	=61	=61
1G	2B]	1d	1b]
.	2B	.	.
1D	1d	1f	1a
=62	=62	=62	=62
0r	0A	2f	1.cc
.	.	2f	.
.	.	1e	.
.	.	.	2cc
=63	=63	=63	=63
1.G	1r	1d	1b
.	[1d	1g	1b
2G	.	.	.
=64	=64	=64	=64
1D	2d]	1f	2a
.	2d	.	2.dd
1F	1A	1d	.
.	.	.	4cc
.	.	.	4b
.	.	.	4a
=65	=65	=65	=65
1E	1c	0e	2g
.	.	.	1a
1E	1B	.	.
.	.	.	2g#i
=66	=66	=66	=66
2r	1A	2c	2a
1F	.	1c	1a
.	[1A	.	.
2F	.	2c	2a
=67	=67	=67	=67
1F	2A]	1.f	0a
.	2A	.	.
1D	1A	.	.
.	.	4e	.
.	.	4d	.
=68	=68	=68	=68
1.G	1B	2.d	1g
.	.	8eL	.
.	.	8dJ	.
.	[1G	2e	[1g
2F	.	[2d	.
=	=	=	=
1E	1G]	2d]	1g]
.	.	2c#i	.
=	=	=	=
*M3/1	*M3/1	*M3/1	*M3/1
*met(3)	*met(3)	*met(3)	*met(3)
0D	0A	0d	0f
1r	1r	1r	1r
=69	=69	=69	=69
1G	1B	1d	1g
1G	1B	1d	1g
1G	1B	1d	1g
=70	=70	=70	=70
1.F	1c	1.f	1.a
.	1d	.	.
2D	.	2f	2b
1F	1c	1f	1a
=71	=71	=71	=71
1G	1B	1d	0g
0D	0A	0d	.
.	.	.	1f#i
=72	=72	=72	=72
0GG	0G	0d	0g
1r	1r	1r	1r
=73	=73	=73	=73
1G	1B	1d	1g
1G	1B	1d	1g
1G	1B	1d	1g
=74	=74	=74	=74
1.F	1c	1.f	1.a
.	1d	.	.
2D	.	2f	2b
1F	1c	1f	1a
=75	=75	=75	=75
1G	1B	1d	0g
0D	0A	0d	.
.	.	.	1f#i
=76	=76	=76	=76
00GGl	00Gl	00dl	00gl
==	==	==	==
*-	*-	*-	*-
!!!system-decoration: [*]
!!!RDF**kern: i = editorial accidental
!!!RDF**kern: l = terminal long
!!!ENC: Benjamin Ory
!!!END: 2022/4/12
!!!EED: Benjamin Ory
!!!EEV: 2022/04/12
!!!YEC: Copyright 2022 Benjamin Ory, All Rights Reserved
!!!ONB: Translated from MusicXML on 2022/04/12
